(Exported by FreeCAD)
(Post Processor: grbl_post)
(Output Time:2020-08-22 12:51:57.729268)
(Begin preamble)
G17 G90
G21
(Begin operation: Fixture)
(Path: Fixture)
G54
(Finish operation: Fixture)
(Begin operation: T2: 6mm)
(Path: T2: 6mm)
(T2: 6mm)
(Begin toolchange)
(M6 T2.0)
M3 S0.0
(Finish operation: T2: 6mm)
(Begin operation: Pocket_Shape)
(Path: Pocket_Shape)
(Pocket_Shape)
G0 Z15.000
G0 X28.991 Y28.991
G0 Z13.000
G1 X28.991 Y28.991 Z-1.000 F600.000
G2 X-0.000 Y-40.999 Z-1.000 I-28.991 J-28.991 K0.000 F600.000
G2 X0.000 Y40.999 Z-1.000 I0.000 J40.999 K0.000 F600.000
G2 X28.991 Y28.991 Z-1.000 I-0.000 J-40.999 K0.000 F600.000
G0 Z15.000
G0 X-24.768 Y32.663 Z15.000
G0 X-24.768 Y32.663 Z13.000
G1 X-24.768 Y32.663 Z-1.000 F600.000
G3 X-32.663 Y24.768 Z-1.000 I24.198 J-32.093 K0.000 F600.000
G1 X-24.768 Y32.663 Z-1.000 F600.000
G2 X-11.218 Y39.425 Z-1.000 I24.550 J-32.237 K0.000 F600.000
G1 X-39.425 Y11.218 Z-1.000 F600.000
G3 X-40.884 Y2.971 Z-1.000 I37.903 J-10.956 K0.000 F600.000
G1 X-2.971 Y40.884 Z-1.000 F600.000
G2 X3.756 Y40.822 Z-1.000 I3.004 J-39.028 K0.000 F600.000
G1 X-40.822 Y-3.756 Z-1.000 F600.000
G3 X-39.856 Y-9.577 Z-1.000 I38.226 J3.354 K0.000 F600.000
G1 X9.577 Y39.856 Z-1.000 F600.000
G2 X14.754 Y38.244 Z-1.000 I-8.492 J-36.394 K0.000 F600.000
G1 X-38.244 Y-14.754 Z-1.000 F600.000
G3 X-36.107 Y-19.405 Z-1.000 I34.667 J13.116 K0.000 F600.000
G1 X19.405 Y36.107 Z-1.000 F600.000
G2 X23.601 Y33.514 Z-1.000 I-17.091 J-32.355 K0.000 F600.000
G1 X-33.514 Y-23.601 Z-1.000 F600.000
G3 X-30.507 Y-27.381 Z-1.000 I30.363 J21.066 K0.000 F600.000
G1 X27.381 Y30.507 Z-1.000 F600.000
G2 X30.764 Y27.101 Z-1.000 I-25.061 J-28.275 K0.000 F600.000
G1 X-27.101 Y-30.764 Z-1.000 F600.000
G3 X-23.286 Y-33.737 Z-1.000 I26.094 J29.556 K0.000 F600.000
G1 X33.737 Y23.286 Z-1.000 F600.000
G2 X36.293 Y19.054 Z-1.000 I-30.484 J-21.300 K0.000 F600.000
G1 X-19.054 Y-36.293 Z-1.000 F600.000
G3 X-14.364 Y-38.391 Z-1.000 I17.379 J32.556 K0.000 F600.000
G1 X38.391 Y14.364 Z-1.000 F600.000
G2 X39.959 Y9.143 Z-1.000 I-35.016 J-13.361 K0.000 F600.000
G1 X-9.143 Y-39.959 Z-1.000 F600.000
G3 X-3.261 Y-40.865 Z-1.000 I8.803 J37.586 K0.000 F600.000
G1 X40.865 Y3.261 Z-1.000 F600.000
G2 X40.844 Y-3.548 Z-1.000 I-40.071 J-3.279 K0.000 F600.000
G1 X3.548 Y-40.844 Z-1.000 F600.000
G3 X11.968 Y-39.213 Z-1.000 I-3.502 J40.621 K0.000 F600.000
G1 X39.213 Y-11.968 Z-1.000 F600.000
G2 X28.369 Y-29.600 Z-1.000 I-39.201 J11.958 K0.000 F600.000
G1 X28.369 Y-29.600 Z-2.000 F600.000
G3 X39.213 Y-11.968 Z-2.000 I-28.357 J29.590 K0.000 F600.000
G1 X11.968 Y-39.213 Z-2.000 F600.000
G2 X3.548 Y-40.844 Z-2.000 I-11.921 J38.990 K0.000 F600.000
G1 X40.844 Y-3.548 Z-2.000 F600.000
G3 X40.865 Y3.261 Z-2.000 I-40.050 J3.530 K0.000 F600.000
G1 X-3.261 Y-40.865 Z-2.000 F600.000
G2 X-9.143 Y-39.959 Z-2.000 I2.921 J38.492 K0.000 F600.000
G1 X39.959 Y9.143 Z-2.000 F600.000
G3 X38.391 Y14.364 Z-2.000 I-36.584 J-8.140 K0.000 F600.000
G1 X-14.364 Y-38.391 Z-2.000 F600.000
G2 X-19.054 Y-36.293 Z-2.000 I12.689 J34.654 K0.000 F600.000
G1 X36.293 Y19.054 Z-2.000 F600.000
G3 X33.737 Y23.286 Z-2.000 I-33.040 J-17.067 K0.000 F600.000
G1 X-23.286 Y-33.737 Z-2.000 F600.000
G2 X-27.101 Y-30.764 Z-2.000 I22.279 J32.529 K0.000 F600.000
G1 X30.764 Y27.101 Z-2.000 F600.000
G3 X27.381 Y30.507 Z-2.000 I-28.443 J-24.870 K0.000 F600.000
G1 X-30.507 Y-27.381 Z-2.000 F600.000
G2 X-33.514 Y-23.601 Z-2.000 I27.356 J24.847 K0.000 F600.000
G1 X23.601 Y33.514 Z-2.000 F600.000
G3 X19.405 Y36.107 Z-2.000 I-21.287 J-29.762 K0.000 F600.000
G1 X-36.107 Y-19.405 Z-2.000 F600.000
G2 X-38.244 Y-14.754 Z-2.000 I32.530 J17.766 K0.000 F600.000
G1 X14.754 Y38.244 Z-2.000 F600.000
G3 X9.577 Y39.856 Z-2.000 I-13.668 J-34.782 K0.000 F600.000
G1 X-39.856 Y-9.577 Z-2.000 F600.000
G2 X-40.822 Y-3.756 Z-2.000 I37.259 J9.176 K0.000 F600.000
G1 X3.756 Y40.822 Z-2.000 F600.000
G3 X-2.971 Y40.884 Z-2.000 I-3.722 J-38.966 K0.000 F600.000
G1 X-40.884 Y2.971 Z-2.000 F600.000
G2 X-39.425 Y11.218 Z-2.000 I39.361 J-2.709 K0.000 F600.000
G1 X-11.218 Y39.425 Z-2.000 F600.000
G3 X-24.768 Y32.663 Z-2.000 I11.000 J-38.999 K0.000 F600.000
G1 X-32.663 Y24.768 Z-2.000 F600.000
G2 X-24.768 Y32.663 Z-2.000 I32.093 J-24.198 K0.000 F600.000
G0 Z15.000
G0 X-24.773 Y32.669 Z15.000
G0 X-24.773 Y32.669 Z13.000
G1 X-24.773 Y32.669 Z-2.000 F600.000
G2 X0.000 Y40.999 Z-2.000 I24.773 J-32.669 K0.000 F600.000
G2 X-0.000 Y-40.999 Z-2.000 I-0.000 J-40.999 K0.000 F600.000
G2 X-24.773 Y32.669 Z-2.000 I0.000 J40.999 K0.000 F600.000
G0 Z15.000
G0 Z15.000
(Finish operation: Pocket_Shape)
(Begin operation: DressupTag)
(Path: DressupTag)
G0 Z15.000
G0 X35.708 Y35.708 Z15.000
G0 X35.708 Y35.708 Z13.000
G1 X35.708 Y35.708 Z-1.200 F600.000
G2 X3.123 Y-50.403 Z-1.200 I-35.708 J-35.708 K0.000 F600.000
G2 X-50.403 Y-3.123 Z-1.200 I-3.123 J50.403 K0.000 F600.000
G2 X-3.123 Y50.403 Z-1.200 I50.403 J3.123 K0.000 F600.000
G2 X35.708 Y35.708 Z-1.200 I3.123 J-50.403 K0.000 F600.000
G1 X35.708 Y35.708 Z-2.400 F600.000
G2 X3.123 Y-50.403 Z-2.400 I-35.708 J-35.708 K0.000 F600.000
G2 X-50.403 Y-3.123 Z-2.400 I-3.123 J50.403 K0.000 F600.000
G2 X-3.123 Y50.403 Z-2.400 I50.403 J3.123 K0.000 F600.000
G2 X35.708 Y35.708 Z-2.400 I3.123 J-50.403 K0.000 F600.000
G1 X35.708 Y35.708 Z-3.600 F600.000
G2 X3.123 Y-50.403 Z-3.600 I-35.708 J-35.708 K0.000 F600.000
G2 X-50.403 Y-3.123 Z-3.600 I-3.123 J50.403 K0.000 F600.000
G2 X-3.123 Y50.403 Z-3.600 I50.403 J3.123 K0.000 F600.000
G2 X35.708 Y35.708 Z-3.600 I3.123 J-50.403 K0.000 F600.000
G1 X35.708 Y35.708 Z-4.800 F600.000
G2 X3.123 Y-50.403 Z-4.800 I-35.708 J-35.708 K0.000 F600.000
G2 X-50.403 Y-3.123 Z-4.800 I-3.123 J50.403 K0.000 F600.000
G2 X-3.123 Y50.403 Z-4.800 I50.403 J3.123 K0.000 F600.000
G2 X35.708 Y35.708 Z-4.800 I3.123 J-50.403 K0.000 F600.000
G1 X35.708 Y35.708 Z-6.000 F600.000
G2 X3.123 Y-50.403 Z-6.000 I-35.708 J-35.708 K0.000 F600.000
G2 X-50.403 Y-3.123 Z-6.000 I-3.123 J50.403 K0.000 F600.000
G2 X-3.123 Y50.403 Z-6.000 I50.403 J3.123 K0.000 F600.000
G2 X35.708 Y35.708 Z-6.000 I3.123 J-50.403 K0.000 F600.000
G1 X35.708 Y35.708 Z-7.200 F600.000
G2 X3.123 Y-50.403 Z-7.200 I-35.708 J-35.708 K0.000 F600.000
G2 X-50.403 Y-3.123 Z-7.200 I-3.123 J50.403 K0.000 F600.000
G2 X-3.123 Y50.403 Z-7.200 I50.403 J3.123 K0.000 F600.000
G2 X35.708 Y35.708 Z-7.200 I3.123 J-50.403 K0.000 F600.000
G1 X35.708 Y35.708 Z-8.400 F600.000
G2 X48.577 Y13.799 Z-8.400 I-35.708 J-35.708 K0.000 F600.000
G1 X48.790 Y13.028 Z-7.600
G2 X49.832 Y8.180 Z-7.600 I-48.790 J-13.028 K0.000 F600.000
G1 X49.956 Y7.389 Z-8.400
G2 X32.549 Y-38.611 Z-8.400 I-49.956 J-7.389 K0.000 F600.000
G1 X31.933 Y-39.122 Z-7.600
G2 X27.942 Y-42.065 Z-7.600 I-31.933 J39.122 K0.000 F600.000
G1 X27.272 Y-42.502 Z-8.400
G2 X3.123 Y-50.403 Z-8.400 I-27.272 J42.502 K0.000 F600.000
G2 X-30.905 Y-39.939 Z-8.400 I-3.123 J50.403 K0.000 F600.000
G1 X-31.534 Y-39.444 Z-7.600
G2 X-35.250 Y-36.161 Z-7.600 I31.534 J39.444 K0.000 F600.000
G1 X-35.819 Y-35.598 Z-8.400
G2 X-50.403 Y-3.123 Z-8.400 I35.819 J35.598 K0.000 F600.000
G2 X-39.939 Y30.905 Z-8.400 I50.403 J3.123 K0.000 F600.000
G1 X-39.444 Y31.534 Z-7.600
G2 X-36.161 Y35.250 Z-7.600 I39.444 J-31.534 K0.000 F600.000
G1 X-35.598 Y35.819 Z-8.400
G2 X-3.123 Y50.403 Z-8.400 I35.598 J-35.819 K0.000 F600.000
G2 X35.708 Y35.708 Z-8.400 I3.123 J-50.403 K0.000 F600.000
G1 X35.708 Y35.708 Z-9.600 F600.000
G2 X48.236 Y14.951 Z-9.600 I-35.708 J-35.708 K0.000 F600.000
G1 X48.790 Y13.028 Z-7.600
G2 X49.832 Y8.180 Z-7.600 I-48.790 J-13.028 K0.000 F600.000
G1 X50.117 Y6.200 Z-9.600
G2 X33.458 Y-37.826 Z-9.600 I-50.117 J-6.200 K0.000 F600.000
G1 X31.933 Y-39.122 Z-7.600
G2 X27.942 Y-42.065 Z-7.600 I-31.933 J39.122 K0.000 F600.000
G1 X26.254 Y-43.139 Z-9.600
G2 X3.123 Y-50.403 Z-9.600 I-26.254 J43.139 K0.000 F600.000
G2 X-29.946 Y-40.662 Z-9.600 I-3.123 J50.403 K0.000 F600.000
G1 X-31.534 Y-39.444 Z-7.600
G2 X-35.250 Y-36.161 Z-7.600 I31.534 J39.444 K0.000 F600.000
G1 X-36.655 Y-34.736 Z-9.600
G2 X-50.403 Y-3.123 Z-9.600 I36.655 J34.736 K0.000 F600.000
G2 X-40.662 Y29.946 Z-9.600 I50.403 J3.123 K0.000 F600.000
G1 X-39.444 Y31.534 Z-7.600
G2 X-36.161 Y35.250 Z-7.600 I39.444 J-31.534 K0.000 F600.000
G1 X-34.736 Y36.655 Z-9.600
G2 X-3.123 Y50.403 Z-9.600 I34.736 J-36.655 K0.000 F600.000
G2 X35.708 Y35.708 Z-9.600 I3.123 J-50.403 K0.000 F600.000
G0 X35.708 Y35.708 Z15.000
(Finish operation: DressupTag)
(Begin postamble)
M5
G17 G90
M2
